X:6
T:Pavan for five viols
%%measurenb 0
%%scale 0.8
%%squarebreve
C:Thomas Weelkes
P:Bassus
M:C|
L:1/4
K:C  clef=bass middle=d
G4 c3 B | c d e ^f g2 g2-|g2 ^f e d2 d2-|d2 c B A2 a2-|a2 g f e4 |
E4 A2 B2 |c2 G2 d4 | G4 G4 :: c4 c4 | e4 e4 | f4 g4 | G4 c4 | c8|
A4 A4 |d6 d2 | ^c2 d2 A4 |d4 d4::z G c B c>d e/f/ g |c3 G c2 c G |
d A d ^c d>e f/g/ a | d3 A d2 d A | ^c d A2  d3 G | d4 d4|[M:6/2] G g>f e d c B c
G>A B c | G4 G8 :|]

